src/ipa/rpi/vc4/data/ar0234.json
{
    "version": 2.0,
    "target": "bcm2835",
    "algorithms": [
        {
            "rpi.black_level":
            {
                "black_level": 2688
            }
        },
        {
            "rpi.dpc": { }
        },
        {
            "rpi.lux":
            {
                "reference_shutter_speed": 14994,
                "reference_gain": 1.77,
                "reference_aperture": 1.0,
                "reference_lux": 233,
                "reference_Y": 10736
            }
        },
        {
            "rpi.noise":
            {
                "reference_constant": 0,
                "reference_slope": 5.089
            }
        },
        {
            "rpi.geq":
            {
                "offset": 337,
                "slope": 0.03633
            }
        },
        {
            "rpi.sdn": { }
        },
        {
            "rpi.awb":
            {
                "priors": [
                    {
                        "lux": 0,
                        "prior":
                        [
                            2000, 1.0,
                            3000, 0.0,
                            13000, 0.0
                        ]
                    },
                    {
                        "lux": 800,
                        "prior":
                        [
                            2000, 0.0,
                            6000, 2.0,
                            13000, 2.0
                        ]
                    },
                    {
                        "lux": 1500,
                        "prior":
                        [
                            2000, 0.0,
                            4000, 1.0,
                            6000, 6.0,
                            6500, 7.0,
                            7000, 1.0,
                            13000, 1.0
                        ]
                    }
                ],
                "modes":
                {
                    "auto":
                    {
                        "lo": 2500,
                        "hi": 8000
                    },
                    "incandescent":
                    {
                        "lo": 2500,
                        "hi": 3000
                    },
                    "tungsten":
                    {
                        "lo": 3000,
                        "hi": 3500
                    },
                    "fluorescent":
                    {
                        "lo": 4000,
                        "hi": 4700
                    },
                    "indoor":
                    {
                        "lo": 3000,
                        "hi": 5000
                    },
                    "daylight":
                    {
                        "lo": 5500,
                        "hi": 6500
                    },
                    "cloudy":
                    {
                        "lo": 7000,
                        "hi": 8600
                    }
                },
                "bayes": 1,
                "ct_curve":
                [
                    3025.0, 1.2837, 0.3714,
                    3720.0, 1.0986, 0.5089,
                    4250.0, 0.9877, 0.5919,
                    4500.0, 0.9677, 0.6069,
                    4685.0, 0.9538, 0.6174,
                    5038.0, 0.9133, 0.6479,
                    5300.0, 0.8637, 0.6855,
                    5490.0, 0.8244, 0.7153,
                    5820.0, 0.7888, 0.7424,
                    6160.0, 0.7511, 0.7711,
                    6550.0, 0.7167, 0.7974
                ],
                "sensitivity_r": 1.0,
                "sensitivity_b": 1.0,
                "transverse_pos": 0.01,
                "transverse_neg": 0.01
            }
        },
        {
            "rpi.agc":
            {
                "metering_modes":
                {
                    "centre-weighted":
                    {
                        "weights":
                        [
                            3, 3, 3, 2, 2, 2, 2, 1, 1, 1, 1, 0, 0, 0, 0
                        ]
                    },
                    "spot":
                    {
                        "weights":
                        [
                            2, 1, 1, 0, 0, 0, 0, 0, 0, 0, 0, 0, 0, 0, 0
                        ]
                    },
                    "matrix":
                    {
                        "weights":
                        [
                            1, 1, 1, 1, 1, 1, 1, 1, 1, 1, 1, 1, 1, 1, 1
                        ]
                    }
                },
                "exposure_modes":
                {
                    "normal":
                    {
                        "shutter": [ 100, 10000, 30000, 60000, 66666 ],
                        "gain": [ 1.0, 2.0, 4.0, 6.0, 8.0 ]
                    },
                    "short":
                    {
                        "shutter": [ 100, 5000, 10000, 20000, 66666 ],
                        "gain": [ 1.0, 2.0, 4.0, 6.0, 8.0 ]
                    },
                    "long":
                    {
                        "shutter": [ 100, 10000, 30000, 60000, 120000 ],
                        "gain": [ 1.0, 2.0, 4.0, 6.0, 8.0 ]
                    }
                },
                "constraint_modes":
                {
                    "normal": [
                        {
                            "bound": "LOWER",
                            "q_lo": 0.98,
                            "q_hi": 1.0,
                            "y_target":
                            [
                                0, 0.5,
                                1000, 0.5
                            ]
                        }
                    ],
                    "highlight": [
                        {
                            "bound": "LOWER",
                            "q_lo": 0.98,
                            "q_hi": 1.0,
                            "y_target":
                            [
                                0, 0.5,
                                1000, 0.5
                            ]
                        },
                        {
                            "bound": "UPPER",
                            "q_lo": 0.98,
                            "q_hi": 1.0,
                            "y_target":
                            [
                                0, 0.8,
                                1000, 0.8
                            ]
                        }
                    ]
                },
                "y_target":
                [
                    0, 0.16,
                    1000, 0.165,
                    10000, 0.17
                ]
            }
        },
        {
            "rpi.alsc":
            {
                "omega": 1.3,
                "n_iter": 100,
                "luminance_strength": 0.7
            }
        },
        {
            "rpi.contrast":
            {
                "ce_enable": 1,
                "gamma_curve":
                [
                    0, 0,
                    1024, 5040,
                    2048, 9338,
                    3072, 12356,
                    4096, 15312,
                    5120, 18051,
                    6144, 20790,
                    7168, 23193,
                    8192, 25744,
                    9216, 27942,
                    10240, 30035,
                    11264, 32005,
                    12288, 33975,
                    13312, 35815,
                    14336, 37600,
                    15360, 39168,
                    16384, 40642,
                    18432, 43379,
                    20480, 45749,
                    22528, 47753,
                    24576, 49621,
                    26624, 51253,
                    28672, 52698,
                    30720, 53796,
                    32768, 54876,
                    36864, 57012,
                    40960, 58656,
                    45056, 59954,
                    49152, 61183,
                    53248, 62355,
                    57344, 63419,
                    61440, 64476,
                    65535, 65535
                ]
            }
        },
        {
            "rpi.ccm":
            {
                "ccms": [
                    {
                        "ct": 3025,
                        "ccm":
                        [
                            1.64817, -0.30484, -0.34333,
                            -0.72108, 2.01131, -0.29022,
                            -0.26658, -0.89991, 2.16649
                        ]
                    },
                    {
                        "ct": 3720,
                        "ccm":
                        [
                            1.61631, -0.37009, -0.24622,
                            -0.62824, 1.83515, -0.20691,
                            -0.16728, -0.57955, 1.74683
                        ]
                    },
                    {
                        "ct": 4250,
                        "ccm":
                        [
                            1.65596, -0.43022, -0.22575,
                            -0.56129, 1.77644, -0.21516,
                            -0.09664, -0.54657, 1.64322
                        ]
                    },
                    {
                        "ct": 4500,
                        "ccm":
                        [
                            1.67058, -0.45631, -0.21427,
                            -0.55979, 1.78489, -0.22511,
                            -0.09141, -0.52894, 1.62035
                        ]
                    },
                    {
                        "ct": 4685,
                        "ccm":
                        [
                            1.67189, -0.45638, -0.21551,
                            -0.54626, 1.75321, -0.20695,
                            -0.08349, -0.53493, 1.61842
                        ]
                    },
                    {
                        "ct": 5038,
                        "ccm":
                        [
                            1.66995, -0.46228, -0.20767,
                            -0.52575, 1.73731, -0.21156,
                            -0.07161, -0.52164, 1.59324
                        ]
                    },
                    {
                        "ct": 5300,
                        "ccm":
                        [
                            1.68358, -0.48691, -0.19667,
                            -0.50777, 1.73675, -0.22898,
                            -0.06332, -0.49626, 1.55958
                        ]
                    },
                    {
                        "ct": 5490,
                        "ccm":
                        [
                            1.69412, -0.48448, -0.20964,
                            -0.48026, 1.70001, -0.21974,
                            -0.05253, -0.48911, 1.54163
                        ]
                    },
                    {
                        "ct": 5820,
                        "ccm":
                        [
                            1.69488, -0.48948, -0.20539,
                            -0.46732, 1.71061, -0.24328,
                            -0.03991, -0.48321, 1.52311
                        ]
                    },
                    {
                        "ct": 6160,
                        "ccm":
                        [
                            1.69003, -0.48889, -0.20113,
                            -0.44811, 1.68551, -0.23739,
                            -0.03899, -0.47051, 1.50949
                        ]
                    },
                    {
                        "ct": 6550,
                        "ccm":
                        [
                            1.69341, -0.48022, -0.21319,
                            -0.43097, 1.67293, -0.24196,
                            -0.03595, -0.45672, 1.49267
                        ]
                    }
                ]
            }
        },
        {
            "rpi.sharpen":
            {
                "threshold": 0.75,
                "limit": 0.5,
                "strength": 1.0
            }
        }
    ]
}